X: 7144
T: Christy Campbell
R: strathspey
M: 4/4
K: Amajor
A>G F<D E<F E<C|A,>f e>c B>A B<c|A>G F<D E<F E>C|E>F G<E (G<A) (A<B)|
A>G F<D E<F E>C|A,>f e>c B>A B<c|A,>f e>c B>A B<c|A<F G<E (G<A) (A<B)|
A>G F<D E<F E>C|A,>f e>c B>A B<c|A>G F<D E<F E>C|E>F G<E (G<A) (A<B)|
A>G F<D =G<F E>C|A,>f e>c B>A B<c|A,>f e>c B>A B<c|A<F G<E (G<A) (3AAA||
A,>A (3e/e/e/e f<d e>c|B>c d<e (f<=g) (3fga|e>d c>e f<a e>c|(3B/B/B/B c<A (E<F) (3EFG|
A2 (3Acd e>f e>d|c>A (3A/A/A/A (f<=g) f>^g|a<e c>e a>e c>e|d<B c>A B>a g>f|
e<A A>c e>f e>d|c>A (3A/A/A/A f>d (f<a)|E<E E>c e>f e>c|(3B/B/B/B c<A (E<F) (3EFG|
A2 (3Acd e>f e>d|c>A (3A/A/A/A (f<=g) f>^g|(3a/a/a/e c>e (3a/a/a/e c>e|d<B c>A B>d c<B||

